icon/cg/zoom-out.svg

<svg viewBox="0 0 24 24" fill="none" xmlns="http://www.w3.org/2000/svg" height="1em" width="1em">
  <path fill-rule="evenodd" clip-rule="evenodd" d="M15.3431 15.2426C17.6863 12.8995 17.6863 9.1005 15.3431 6.75736C13 4.41421 9.20101 4.41421 6.85786 6.75736C4.51472 9.1005 4.51472 12.8995 6.85786 15.2426C9.20101 17.5858 13 17.5858 15.3431 15.2426ZM16.7574 5.34315C19.6425 8.22833 19.8633 12.769 17.4195 15.9075C17.4348 15.921 17.4498 15.9351 17.4645 15.9497L21.7071 20.1924C22.0976 20.5829 22.0976 21.2161 21.7071 21.6066C21.3166 21.9971 20.6834 21.9971 20.2929 21.6066L16.0503 17.364C16.0356 17.3493 16.0215 17.3343 16.008 17.319C12.8695 19.7628 8.32883 19.542 5.44365 16.6569C2.31946 13.5327 2.31946 8.46734 5.44365 5.34315C8.56785 2.21895 13.6332 2.21895 16.7574 5.34315ZM7.10052 10V12H15.1005V10L7.10052 10Z" fill="currentColor"/>
</svg>

<svg width="24" height="24" fill="none" xmlns="http://www.w3.org/2000/svg"><path fill-rule="evenodd" clip-rule="evenodd" d="M15.343 15.243a6 6 0 1 0-8.485-8.486 6 6 0 0 0 8.485 8.486Zm1.414-9.9a8.001 8.001 0 0 1 .662 10.565c.016.013.03.027.046.042l4.242 4.242a1 1 0 0 1-1.414 1.415l-4.243-4.243a.99.99 0 0 1-.042-.045A8.001 8.001 0 0 1 5.444 5.343a8 8 0 0 1 11.313 0ZM7.101 10v2h8v-2h-8Z" fill="currentColor"/></svg>
